; generated by Slic3r 1.2.9 on 2017-09-21 at 16:26:51

; external perimeters extrusion width = 0.36mm
; perimeters extrusion width = 0.32mm
; infill extrusion width = 0.32mm
; solid infill extrusion width = 0.30mm
; top infill extrusion width = 0.28mm
; support material extrusion width = 0.28mm

M106 S0
M104 S200 ; set temperature
G28
G90
G1 Z5 F210
G32 S1
M104 S200 ; set temperature
M116 ; wait for temperature to be reached
G21 ; set units to millimeters
G90 ; use absolute coordinates
M82 ; use absolute distances for extrusion
G92 E0
G1 Z0.000 F2100.000
G1 E-3.00000 F1800.00000
G92 E0
G1 X186.691 Y186.975 F2100.000
G1 E3.00000 F1800.00000
G1 X187.409 Y186.280 E3.05184 F840.000
G1 X188.466 Y185.380 E3.12376
G1 X189.267 Y184.783 E3.17558
G1 X190.430 Y184.025 E3.24753
G1 X191.301 Y183.535 E3.29934
G1 X192.551 Y182.933 E3.37129
G1 X193.478 Y182.558 E3.42310
G1 X194.795 Y182.120 E3.49503
G1 X195.761 Y181.867 E3.54684
G1 X197.124 Y181.601 E3.61882
G1 X198.116 Y181.474 E3.67065
G1 X199.153 Y181.390 E3.72458
G1 X200.345 Y181.374 E3.78636
G1 X200.847 Y181.390 E3.81243 F840.000
G1 X201.885 Y181.474 E3.86639
G1 X202.877 Y181.602 E3.91825
G1 X204.238 Y181.867 E3.99015
G1 X205.200 Y182.119 E4.04166
G1 X206.522 Y182.558 E4.11391
G1 X207.449 Y182.933 E4.16572
G1 X208.699 Y183.535 E4.23767
G1 X209.570 Y184.025 E4.28948
G1 X210.733 Y184.783 E4.36143
G1 X211.534 Y185.380 E4.41324
G1 X212.591 Y186.280 E4.48519
G1 X213.309 Y186.976 E4.53701
G1 X214.242 Y188.003 E4.60895
G1 X214.866 Y188.785 E4.66081
G1 X215.660 Y189.923 E4.73270
G1 X216.175 Y190.772 E4.78421
G1 X216.820 Y192.008 E4.85647
G1 X217.224 Y192.922 E4.90829
G1 X217.704 Y194.224 E4.98023
G1 X217.988 Y195.183 E5.03204
G1 X218.297 Y196.536 E5.10398
G1 X218.456 Y197.522 E5.15581
G1 X218.590 Y198.904 E5.22775
G1 X218.622 Y199.903 E5.27956
G1 X218.577 Y201.290 E5.35151
G1 X218.481 Y202.285 E5.40332
G1 X218.260 Y203.655 E5.47526
G1 X218.037 Y204.629 E5.52707
G1 X217.642 Y205.960 E5.59903
G1 X217.297 Y206.898 E5.65084
G1 X216.735 Y208.167 E5.72278
G1 X216.273 Y209.053 E5.77459
G1 X215.554 Y210.240 E5.84655
G1 X214.982 Y211.060 E5.89838
G1 X214.116 Y212.145 E5.97030
G1 X213.448 Y212.881 E6.02182
G1 X212.447 Y213.851 E6.09406
G1 X211.686 Y214.498 E6.14588
G1 X210.574 Y215.329 E6.21783
G1 X209.736 Y215.874 E6.26964
G1 X208.527 Y216.555 E6.34158
G1 X207.627 Y216.989 E6.39339
G1 X206.340 Y217.509 E6.46534
G1 X205.392 Y217.824 E6.51715
G1 X204.049 Y218.176 E6.58911
G1 X203.068 Y218.367 E6.64092
G1 X201.691 Y218.545 E6.71286
G1 X200.693 Y218.609 E6.76471
G1 X199.306 Y218.609 E6.83662
G1 X198.309 Y218.545 E6.88844
G1 X196.932 Y218.367 E6.96038
G1 X195.951 Y218.176 E7.01219
G1 X194.608 Y217.824 E7.08415
G1 X193.660 Y217.509 E7.13596
G1 X192.373 Y216.989 E7.20790
G1 X191.473 Y216.555 E7.25973
G1 X190.264 Y215.874 E7.33166
G1 X189.431 Y215.332 E7.38317
G1 X188.314 Y214.498 E7.45542
G1 X187.553 Y213.851 E7.50723
G1 X186.556 Y212.885 E7.57918
G1 X185.883 Y212.144 E7.63106
G1 X185.018 Y211.060 E7.70294
G1 X184.446 Y210.240 E7.75475
G1 X183.727 Y209.053 E7.82671
G1 X183.265 Y208.167 E7.87852
G1 X182.703 Y206.898 E7.95045
G1 X182.358 Y205.960 E8.00227
G1 X181.963 Y204.629 E8.07423
G1 X181.740 Y203.653 E8.12614
G1 X181.519 Y202.285 E8.19798
G1 X181.423 Y201.295 E8.24955
G1 X181.378 Y199.903 E8.32173
G1 X181.410 Y198.904 E8.37357
G1 X181.544 Y197.522 E8.44550
G1 X181.703 Y196.535 E8.49737
G1 X182.012 Y195.183 E8.56925
G1 X182.295 Y194.230 E8.62077
G1 X182.776 Y192.922 E8.69301
G1 X183.181 Y192.007 E8.74486
G1 X183.822 Y190.777 E8.81678
G1 X184.341 Y189.922 E8.86862
G1 X185.134 Y188.784 E8.94053
G1 X185.758 Y188.002 E8.99238
G1 X186.650 Y187.020 E9.06118
G1 X186.980 Y187.274 F2100.000
G4 P38
G1 X187.698 Y186.578 E9.11302 F840.000
G1 X188.714 Y185.713 E9.18218
G1 X189.515 Y185.116 E9.23400
G1 X190.634 Y184.388 E9.30319
G1 X191.505 Y183.897 E9.35500
G1 X192.707 Y183.318 E9.42418
G1 X193.634 Y182.943 E9.47600
G1 X194.900 Y182.522 E9.54517
G1 X195.867 Y182.269 E9.59698
G1 X197.177 Y182.014 E9.66619
G1 X198.169 Y181.886 E9.71803
G1 X199.166 Y181.806 E9.76989
G1 X200.331 Y181.790 E9.83030
G1 X200.834 Y181.806 E9.85635 F840.000
G1 X201.832 Y181.886 E9.90824
G1 X202.824 Y182.014 E9.96010
G1 X204.133 Y182.269 E10.02924
G1 X205.094 Y182.521 E10.08076
G1 X206.366 Y182.943 E10.15024
G1 X207.293 Y183.318 E10.20205
G1 X208.495 Y183.897 E10.27124
G1 X209.366 Y184.388 E10.32305
G1 X210.485 Y185.116 E10.39224
G1 X211.286 Y185.713 E10.44405
G1 X212.302 Y186.579 E10.51324
G1 X213.020 Y187.274 E10.56506
G1 X213.917 Y188.262 E10.63424
G1 X214.541 Y189.044 E10.68609
G1 X215.304 Y190.138 E10.75523
G1 X215.819 Y190.988 E10.80674
G1 X216.440 Y192.176 E10.87624
G1 X216.844 Y193.090 E10.92805
G1 X217.305 Y194.343 E10.99724
G1 X217.590 Y195.301 E11.04905
G1 X217.887 Y196.602 E11.11823
G1 X218.046 Y197.589 E11.17005
G1 X218.174 Y198.917 E11.23924
G1 X218.206 Y199.916 E11.29105
G1 X218.163 Y201.250 E11.36023
G1 X218.067 Y202.245 E11.41204
G1 X217.855 Y203.562 E11.48122
G1 X217.632 Y204.537 E11.53303
G1 X217.252 Y205.817 E11.60223
G1 X216.907 Y206.755 E11.65405
G1 X216.367 Y207.975 E11.72322
G1 X215.905 Y208.861 E11.77503
G1 X215.213 Y210.002 E11.84423
G1 X214.641 Y210.822 E11.89606
G1 X213.809 Y211.866 E11.96522
G1 X213.141 Y212.601 E12.01674
G1 X212.178 Y213.534 E12.08622
G1 X211.417 Y214.182 E12.13804
G1 X210.347 Y214.980 E12.20723
G1 X209.510 Y215.526 E12.25904
G1 X208.347 Y216.180 E12.32822
G1 X207.446 Y216.614 E12.38003
G1 X206.209 Y217.115 E12.44922
G1 X205.261 Y217.430 E12.50103
G1 X203.969 Y217.768 E12.57022
G1 X202.988 Y217.960 E12.62204
G1 X201.665 Y218.130 E12.69122
G1 X200.667 Y218.194 E12.74306
G1 X199.333 Y218.194 E12.81222
G1 X198.335 Y218.130 E12.86403
G1 X197.012 Y217.960 E12.93321
G1 X196.031 Y217.768 E12.98502
G1 X194.739 Y217.430 E13.05422
G1 X193.791 Y217.115 E13.10603
G1 X192.554 Y216.614 E13.17522
G1 X191.653 Y216.180 E13.22704
G1 X190.490 Y215.526 E13.29621
G1 X189.657 Y214.983 E13.34778
G1 X188.583 Y214.182 E13.41721
G1 X187.822 Y213.534 E13.46902
G1 X186.863 Y212.606 E13.53821
G1 X186.190 Y211.865 E13.59008
G1 X185.359 Y210.822 E13.65920
G1 X184.787 Y210.002 E13.71102
G1 X184.095 Y208.861 E13.78021
G1 X183.633 Y207.975 E13.83203
G1 X183.093 Y206.755 E13.90120
G1 X182.748 Y205.817 E13.95301
G1 X182.368 Y204.537 E14.02221
G1 X182.145 Y203.561 E14.07413
G1 X181.933 Y202.245 E14.14320
G1 X181.837 Y201.256 E14.19472
G1 X181.794 Y199.916 E14.26420
G1 X181.826 Y198.917 E14.31603
G1 X181.954 Y197.589 E14.38521
G1 X182.114 Y196.601 E14.43707
G1 X182.410 Y195.301 E14.50620
G1 X182.693 Y194.348 E14.55771
G1 X183.156 Y193.090 E14.62719
G1 X183.561 Y192.176 E14.67904
G1 X184.178 Y190.993 E14.74820
G1 X184.696 Y190.138 E14.80004
G1 X185.459 Y189.043 E14.86919
G1 X186.083 Y188.262 E14.92104
G1 X186.939 Y187.318 E14.98708
G1 E11.98708 F1800.00000
G92 E0
G1 X190.033 Y190.427 F2100.000
G1 E3.00000 F1800.00000
G1 X190.890 Y189.597 E3.06184 F840.000
G1 X191.184 Y189.347 E3.08187
G1 X192.295 Y188.518 E3.15372
G1 X192.619 Y188.307 E3.17376
G1 X193.827 Y187.627 E3.24560
G1 X194.175 Y187.459 E3.26564
G1 X198.178 Y185.838 E3.48951
G1 X198.697 Y186.188 E3.52194
G1 X198.833 Y186.224 E3.52926 F840.000
G1 X199.903 Y186.174 E3.58474
G1 X200.838 Y186.197 E3.63324
G1 X202.454 Y186.392 E3.71761
G1 X202.833 Y186.465 E3.73763
G1 X204.174 Y186.817 E3.80949
G1 X204.540 Y186.939 E3.82951
G1 X205.825 Y187.459 E3.90134
G1 X206.173 Y187.627 E3.92139
G1 X207.381 Y188.307 E3.99323
G1 X207.705 Y188.518 E4.01328
G1 X208.816 Y189.347 E4.08513
G1 X209.110 Y189.597 E4.10517
G1 X210.105 Y190.561 E4.17701
G1 X210.365 Y190.847 E4.19705
G1 X211.230 Y191.931 E4.26892
G1 X211.451 Y192.248 E4.28894
G1 X212.169 Y193.434 E4.36079
G1 X212.348 Y193.776 E4.38082
G1 X212.909 Y195.043 E4.45266
G1 X213.042 Y195.406 E4.47270
G1 X213.437 Y196.734 E4.54450
G1 X213.523 Y197.111 E4.56457
G1 X213.744 Y198.480 E4.63644
G1 X213.781 Y198.865 E4.65648
G1 X213.826 Y200.250 E4.72832
G1 X213.813 Y200.636 E4.74836
G1 X213.680 Y202.015 E4.82018
G1 X213.618 Y202.397 E4.84023
G1 X213.310 Y203.748 E4.91206
G1 X213.200 Y204.119 E4.93212
G1 X212.721 Y205.420 E5.00398
G1 X212.565 Y205.773 E5.02401
G1 X211.924 Y207.002 E5.09583
G1 X211.724 Y207.333 E5.11589
G1 X210.930 Y208.470 E5.18776
G1 X210.689 Y208.772 E5.20779
G1 X209.758 Y209.798 E5.27963
G1 X209.480 Y210.067 E5.29967
G1 X208.425 Y210.965 E5.37152
G1 X208.115 Y211.196 E5.39155
G1 X206.954 Y211.952 E5.46338
G1 X206.617 Y212.142 E5.48343
G1 X205.368 Y212.743 E5.55528
G1 X205.010 Y212.888 E5.57532
G1 X203.695 Y213.325 E5.64714
G1 X203.320 Y213.423 E5.66720
G1 X201.960 Y213.688 E5.73906
G1 X201.576 Y213.738 E5.75909
G1 X200.392 Y213.814 E5.82063
G1 X199.807 Y213.826 E5.85097
G1 X198.425 Y213.738 E5.92275
G1 X198.041 Y213.688 E5.94283
G1 X196.681 Y213.424 E6.01464
G1 X196.306 Y213.325 E6.03472
G1 X194.991 Y212.889 E6.10657
G1 X194.632 Y212.743 E6.12662
G1 X193.383 Y212.142 E6.19847
G1 X193.047 Y211.952 E6.21850
G1 X191.885 Y211.196 E6.29038
G1 X191.575 Y210.965 E6.31040
G1 X190.520 Y210.067 E6.38223
G1 X190.242 Y209.798 E6.40227
G1 X189.444 Y208.919 E6.46381
G1 X189.069 Y208.469 E6.49415
G1 X188.277 Y207.333 E6.56595
G1 X188.076 Y207.002 E6.58602
G1 X187.435 Y205.774 E6.65785
G1 X187.279 Y205.420 E6.67790
G1 X186.800 Y204.119 E6.74976
G1 X186.690 Y203.749 E6.76980
G1 X186.381 Y202.397 E6.84169
G1 X186.320 Y202.016 E6.86170
G1 X186.206 Y200.834 E6.92322
G1 X186.174 Y200.250 E6.95356
G1 X186.219 Y198.865 E7.02541
G1 X186.256 Y198.480 E7.04544
G1 X186.445 Y197.308 E7.10698
G1 X186.563 Y196.735 E7.13731
G1 X186.958 Y195.406 E7.20916
G1 X187.091 Y195.043 E7.22919
G1 X187.652 Y193.776 E7.30105
G1 X187.831 Y193.433 E7.32108
G1 X188.446 Y192.418 E7.38262
G1 X188.771 Y191.931 E7.41295
G1 X189.635 Y190.847 E7.48481
G1 X189.990 Y190.469 E7.51173
G1 X190.322 Y190.726 F2100.000
G4 P38
G1 X191.170 Y189.905 E7.57288 F840.000
G1 X191.444 Y189.672 E7.59153
G1 X192.533 Y188.859 E7.66199
G1 X192.835 Y188.662 E7.68065
G1 X194.019 Y187.995 E7.75111
G1 X194.343 Y187.839 E7.76977
G1 X198.129 Y186.306 E7.98149
G1 X198.596 Y186.621 E8.01069 F840.000
G1 X198.744 Y186.656 E8.01855
G1 X199.186 Y186.612 E8.04160
G1 X199.909 Y186.589 E8.07910
G1 X200.815 Y186.612 E8.12604
G1 X202.387 Y186.802 E8.20816
G1 X202.740 Y186.871 E8.22680
G1 X204.055 Y187.216 E8.29727
G1 X204.397 Y187.329 E8.31592
G1 X205.656 Y187.839 E8.38637
G1 X205.981 Y187.995 E8.40503
G1 X207.165 Y188.662 E8.47549
G1 X207.467 Y188.859 E8.49416
G1 X208.556 Y189.672 E8.56463
G1 X208.830 Y189.905 E8.58328
G1 X209.807 Y190.851 E8.65374
G1 X210.049 Y191.117 E8.67240
G1 X210.896 Y192.180 E8.74289
G1 X211.102 Y192.475 E8.76153
G1 X211.807 Y193.638 E8.83200
G1 X211.973 Y193.957 E8.85065
G1 X212.523 Y195.199 E8.92110
G1 X212.648 Y195.537 E8.93977
G1 X213.034 Y196.839 E9.01019
G1 X213.115 Y197.191 E9.02887
G1 X213.302 Y198.350 E9.08973
G1 X213.366 Y198.891 E9.11800
G1 X213.410 Y200.250 E9.18846
G1 X213.398 Y200.610 E9.20712
G1 X213.268 Y201.962 E9.27756
G1 X213.210 Y202.318 E9.29623
G1 X212.908 Y203.643 E9.36667
G1 X212.805 Y203.988 E9.38535
G1 X212.336 Y205.264 E9.45583
G1 X212.190 Y205.593 E9.47448
G1 X211.562 Y206.798 E9.54492
G1 X211.375 Y207.106 E9.56359
G1 X210.597 Y208.221 E9.63408
G1 X210.373 Y208.502 E9.65273
G1 X209.584 Y209.371 E9.71356
G1 X209.200 Y209.759 E9.74183
G1 X208.165 Y210.640 E9.81230
G1 X207.877 Y210.855 E9.83095
G1 X206.738 Y211.597 E9.90140
G1 X206.424 Y211.773 E9.92007
G1 X205.200 Y212.363 E9.99053
G1 X204.866 Y212.498 E10.00919
G1 X203.576 Y212.926 E10.07963
G1 X203.228 Y213.018 E10.09831
G1 X201.893 Y213.278 E10.16879
G1 X201.536 Y213.324 E10.18744
G1 X200.365 Y213.399 E10.24828
G1 X199.820 Y213.411 E10.27655
G1 X198.465 Y213.324 E10.34696
G1 X198.107 Y213.278 E10.36565
G1 X196.773 Y213.018 E10.43609
G1 X196.424 Y212.927 E10.45477
G1 X195.134 Y212.498 E10.52525
G1 X194.801 Y212.363 E10.54391
G1 X193.576 Y211.773 E10.61438
G1 X193.262 Y211.597 E10.63303
G1 X192.123 Y210.855 E10.70352
G1 X191.835 Y210.640 E10.72216
G1 X190.800 Y209.759 E10.79262
G1 X190.541 Y209.509 E10.81127
G1 X189.752 Y208.640 E10.87212
G1 X189.403 Y208.221 E10.90039
G1 X188.625 Y207.107 E10.97081
G1 X188.439 Y206.798 E10.98949
G1 X187.810 Y205.593 E11.05995
G1 X187.664 Y205.264 E11.07861
G1 X187.195 Y203.988 E11.14909
G1 X187.092 Y203.643 E11.16775
G1 X186.790 Y202.317 E11.23825
G1 X186.732 Y201.962 E11.25688
G1 X186.620 Y200.794 E11.31773
G1 X186.590 Y200.250 E11.34598
G1 X186.634 Y198.891 E11.41645
G1 X186.668 Y198.533 E11.43510
G1 X186.856 Y197.374 E11.49594
G1 X186.965 Y196.840 E11.52421
G1 X187.352 Y195.537 E11.59467
G1 X187.476 Y195.200 E11.61332
G1 X188.027 Y193.956 E11.68380
G1 X188.193 Y193.637 E11.70245
G1 X188.802 Y192.634 E11.76329
G1 X189.104 Y192.180 E11.79156
G1 X189.951 Y191.117 E11.86203
G1 X190.279 Y190.767 E11.88688
G1 X190.612 Y191.024 F2100.000
G4 P37
G1 X191.449 Y190.213 E11.94734 F840.000
G1 X191.703 Y189.997 E11.96460
G1 X192.771 Y189.200 E12.03369
G1 X193.050 Y189.018 E12.05096
G1 X194.211 Y188.364 E12.12004
G1 X194.512 Y188.219 E12.13732
G1 X198.080 Y186.775 E12.33689
G1 X198.494 Y187.054 E12.36276
G1 X198.641 Y187.089 E12.37061 F840.000
G4 P3
G1 X199.210 Y187.027 E12.40023
G1 X199.916 Y187.005 E12.43687
G1 X200.791 Y187.027 E12.48226
G1 X202.321 Y187.213 E12.56213
G1 X202.648 Y187.276 E12.57939
G1 X203.937 Y187.614 E12.64848
G1 X204.253 Y187.719 E12.66575
G1 X205.488 Y188.219 E12.73481
G1 X205.788 Y188.364 E12.75210
G1 X206.949 Y189.018 E12.82117
G1 X207.229 Y189.200 E12.83846
G1 X208.297 Y189.997 E12.90755
G1 X208.551 Y190.213 E12.92482
G1 X209.508 Y191.140 E12.99390
G1 X209.732 Y191.387 E13.01117
G1 X210.563 Y192.429 E13.08028
G1 X210.754 Y192.702 E13.09754
G1 X211.445 Y193.842 E13.16663
G1 X211.599 Y194.137 E13.18390
G1 X212.138 Y195.355 E13.25297
G1 X212.253 Y195.668 E13.27025
G1 X212.632 Y196.945 E13.33929
G1 X212.706 Y197.270 E13.35659
G1 X212.919 Y198.586 E13.42569
G1 X212.951 Y198.918 E13.44297
G1 X212.994 Y200.250 E13.51204
G1 X212.983 Y200.583 E13.52932
G1 X212.855 Y201.909 E13.59838
G1 X212.802 Y202.238 E13.61567
G1 X212.506 Y203.537 E13.68473
G1 X212.411 Y203.857 E13.70203
G1 X211.950 Y205.108 E13.77112
G1 X211.816 Y205.413 E13.78839
G1 X211.199 Y206.594 E13.85745
G1 X211.027 Y206.879 E13.87474
G1 X210.264 Y207.972 E13.94384
G1 X210.056 Y208.233 E13.96111
G1 X209.160 Y209.219 E14.03020
G1 X208.921 Y209.451 E14.04747
G1 X207.906 Y210.315 E14.11655
G1 X207.639 Y210.514 E14.13383
G1 X206.523 Y211.241 E14.20289
G1 X206.232 Y211.405 E14.22017
G1 X205.031 Y211.983 E14.28926
G1 X204.722 Y212.108 E14.30654
G1 X203.458 Y212.528 E14.37560
G1 X203.135 Y212.612 E14.39289
G1 X201.827 Y212.867 E14.46198
G1 X201.497 Y212.910 E14.47925
G1 X200.339 Y212.984 E14.53941
G1 X199.833 Y212.995 E14.56560
G1 X198.504 Y212.910 E14.63463
G1 X198.173 Y212.867 E14.65194
G1 X196.866 Y212.613 E14.72100
G1 X196.543 Y212.528 E14.73830
G1 X195.278 Y212.108 E14.80739
G1 X194.969 Y211.983 E14.82467
G1 X193.768 Y211.405 E14.89376
G1 X193.478 Y211.241 E14.91103
G1 X192.361 Y210.514 E14.98014
G1 X192.094 Y210.315 E14.99739
G1 X191.079 Y209.451 E15.06647
G1 X190.840 Y209.219 E15.08374
G1 X190.060 Y208.360 E15.14390
G1 X189.736 Y207.972 E15.17010
G1 X188.974 Y206.880 E15.23914
G1 X188.801 Y206.594 E15.25644
G1 X188.185 Y205.413 E15.32552
G1 X188.050 Y205.108 E15.34280
G1 X187.589 Y203.857 E15.41189
G1 X187.494 Y203.538 E15.42916
G1 X187.198 Y202.238 E15.49829
G1 X187.145 Y201.909 E15.51553
G1 X187.033 Y200.754 E15.57568
G1 X187.006 Y200.250 E15.60187
G1 X187.049 Y198.918 E15.67096
G1 X187.081 Y198.586 E15.68823
G1 X187.266 Y197.441 E15.74838
G1 X187.368 Y196.946 E15.77457
G1 X187.747 Y195.668 E15.84365
G1 X187.862 Y195.356 E15.86092
G1 X188.401 Y194.137 E15.93002
G1 X188.556 Y193.841 E15.94729
G1 X189.157 Y192.849 E16.00744
G1 X189.437 Y192.429 E16.03363
G1 X190.268 Y191.386 E16.10272
G1 X190.568 Y191.066 E16.12550
G1 X190.901 Y191.323 F2100.000
G4 P37
G1 X191.729 Y190.521 E16.18527 F840.000
G1 X191.962 Y190.322 E16.20115
G1 X193.009 Y189.541 E16.26886
G1 X193.266 Y189.374 E16.28475
G1 X194.404 Y188.733 E16.35245
G1 X194.680 Y188.600 E16.36834
G1 X198.031 Y187.243 E16.55576
